X: 31324
T: Paddy Magee
R: reel
M: 4/4
K: Amajor
|:E2 A2 ABcA|BcBA FGAF|E2 A2 ABcA|efec (3BcB A2|
E2 A2 ABcA|BcBA FGAF|E2 A2 ABcA|efec (3BcB A2|
c2 e2 aecA|B2 d2 =gdB=G|c2 e2 ae cA|efec (3BcB A2|
c2 e2 ae cA|B2 d2 =gdB=G|c2 e2 aecA|ecdB cABG:|

